static/assets/images/networks/aptos-mono.svg

<svg width="364" height="256" viewBox="0 0 364 256" fill="none" xmlns="http://www.w3.org/2000/svg">
<path d="M327.55 22.4573C338.646 37.608 347.393 54.0226 353.791 71.7008C319.23 71.7245 284.74 71.7648 250.321 71.8217C246.013 71.8265 242.491 70.3043 239.757 67.2552C235.297 62.276 231.078 57.4463 227.102 52.7659C222.417 47.2675 215.251 47.7868 210.715 53.0504C207.018 57.3467 203.553 61.3324 200.321 65.0075C197.956 67.6962 195.093 69.6262 191.733 70.7975C189.97 71.4092 186.306 71.715 180.742 71.715C123.99 71.7198 67.1528 71.7198 10.2304 71.715C16.5814 54.0273 25.326 37.6365 36.464 22.5426C101.723 22.5521 166.883 22.5545 231.943 22.5497C234.602 22.5497 237.517 20.7003 239.444 18.6874C244.307 13.5849 249.238 8.44696 254.238 3.27341C258.554 -1.18646 265.898 -1.07977 270.021 3.53659C274.277 8.30707 278.564 13.1107 282.882 17.9476C286.458 21.9522 289.949 22.5426 295.444 22.5569C306.056 22.59 316.758 22.5569 327.55 22.4573Z" fill="black"/>
<path d="M363.417 117.146C317.912 117.16 272.429 117.158 226.967 117.139C223.874 117.139 220.135 114.905 217.902 112.345C213.594 107.413 209.499 102.709 205.617 98.2324C202.909 95.1098 199.482 93.9148 195.337 94.4341C193.171 94.7044 190.932 96.0677 188.619 98.5241C184.514 102.882 180.154 107.489 175.538 112.345C172.68 115.346 170.461 117.167 166.537 117.16C111.221 117.151 55.9081 117.148 0.597187 117.153L0 125.689V138.4C0.540312 147.59 1.53089 156.747 2.97172 165.87C41.5045 165.885 79.9639 165.882 118.35 165.863C122.023 165.863 124.741 165.6 126.504 165.074C130.414 163.9 133.351 161.617 136.009 158.629C138.92 155.362 142 151.862 145.252 148.13C148.828 144.026 153.349 142.049 158.447 144.489C159.892 145.176 161.442 146.478 163.096 148.394C167.324 153.292 171.341 157.802 175.147 161.923C177.578 164.554 181.118 165.892 184.652 165.885C243.332 165.87 302.668 165.894 360.264 165.909C360.255 165.901 360.56 165.901 360.854 165.903C362.546 156.842 363.595 147.523 364 137.945V125.603L363.417 117.146Z" fill="black"/>
<path d="M103.356 251.092C105.915 254.001 109.378 255.857 113.217 255.857C143.418 255.859 173.879 255.873 204.262 255.887C241.321 255.903 278.262 255.92 314.469 255.915L315.478 255.915C318.374 252.793 321.155 249.563 323.796 246.255C332.695 235.109 340.123 223.372 346.081 211.045H162.008C158.319 211.045 154.778 209.281 152.269 206.457C148.453 202.175 144.278 197.466 139.742 192.331C135.618 187.658 128.168 187.16 123.724 191.783C118.345 197.383 113.186 202.74 108.247 207.851C105.588 210.597 102.56 211.059 98.6852 211.059C71.7976 211.04 44.8673 211.038 17.8943 211.052C26.0169 227.657 36.2637 242.635 48.6349 255.985L48.6492 256L48.6664 256C48.9166 255.996 49.1668 255.987 49.417 255.975C54.9873 255.699 60.5381 253.38 64.1834 249.278C67.4774 245.574 71.1222 241.423 75.1177 236.823C76.7433 234.954 78.7008 233.786 80.99 233.316C85.3836 232.42 88.7321 234.269 91.5688 237.563C95.4931 242.115 99.4222 246.625 103.356 251.092Z" fill="black"/>
</svg>

<svg xmlns="http://www.w3.org/2000/svg" fill="none" viewBox="0 0 364 256"><path fill="#000" d="M327.55 22.457a195.6 195.6 0 0 1 26.241 49.244q-51.841.036-103.47.12-6.463.007-10.564-4.566a734 734 0 0 1-12.655-14.49c-4.685-5.498-11.851-4.978-16.387.285a1476 1476 0 0 1-10.394 11.957q-3.548 4.035-8.588 5.79-2.645.918-10.991.918-85.129.007-170.512 0 9.527-26.532 26.234-49.172 97.889.015 195.479.007c2.659 0 5.574-1.85 7.501-3.863a3065 3065 0 0 1 14.794-15.414c4.316-4.46 11.66-4.353 15.783.264q6.384 7.156 12.861 14.41c3.576 4.005 7.067 4.596 12.562 4.61q15.918.05 32.106-.1m35.867 94.689q-68.257.021-136.45-.007c-3.093 0-6.832-2.234-9.065-4.794a5228 5228 0 0 1-12.285-14.113c-2.708-3.122-6.135-4.317-10.28-3.798q-3.249.405-6.718 4.09a4197 4197 0 0 1-13.081 13.821c-2.858 3.001-5.077 4.822-9.001 4.815q-82.974-.014-165.94-.007L0 125.689V138.4q.81 13.785 2.972 27.47 57.8.022 115.378-.007 5.51 0 8.154-.789c3.91-1.174 6.847-3.457 9.505-6.445a1270 1270 0 0 0 9.243-10.499c3.576-4.104 8.097-6.081 13.195-3.641q2.168 1.03 4.649 3.905a542 542 0 0 0 12.051 13.529c2.431 2.631 5.971 3.969 9.505 3.962 58.68-.015 118.016.009 175.612.024a8 8 0 0 1 .59-.006q2.538-13.591 3.146-27.958v-12.342zM103.356 251.092c2.559 2.909 6.022 4.765 9.861 4.765 30.201.002 60.662.016 91.045.03 37.059.016 74 .033 110.207.028h1.009a172 172 0 0 0 8.318-9.66q13.348-16.72 22.285-35.21H162.008c-3.689 0-7.23-1.764-9.739-4.588a4349 4349 0 0 1-12.527-14.126c-4.124-4.673-11.574-5.171-16.018-.548a7424 7424 0 0 1-15.477 16.068c-2.659 2.746-5.687 3.208-9.562 3.208a65916 65916 0 0 0-80.79-.007q12.183 24.908 30.74 44.933l.014.015h.017q.375-.006.751-.025c5.57-.276 11.121-2.595 14.766-6.697q4.942-5.555 10.935-12.455 2.438-2.803 5.872-3.507c4.394-.896 7.742.953 10.579 4.247q5.886 6.828 11.787 13.529"/></svg>
